Sites/Hud/app/img/dest/advantages/image(4).svg

<svg width="128" height="128" viewBox="0 0 128 128" fill="none" xmlns="http://www.w3.org/2000/svg">
<circle cx="64" cy="64" r="63" stroke="white" stroke-width="2"/>
<path d="M58.5315 41.4388H51.1948M68.4496 41.4388H74.8352M74.8352 41.4388V35H89.7802V41.4388M74.8352 41.4388H89.7802M89.7802 41.4388H98V48.0809H93.5165M51.1948 41.4388V35H37.8122V41.4388M51.1948 41.4388H37.8122M37.8122 41.4388H30V48.0809H34.0759M61.8601 41.4388H64.985M93.5165 48.0809H92.0899H34.0759M93.5165 48.0809L92.7692 84.3413M92.7692 84.3413H34.0759M92.7692 84.3413H96.5734V92H30V84.3413H34.0759M34.0759 84.3413V48.0809M82.5115 63.4661V67.2277M82.5115 70.9893V67.2277M82.5115 67.2277H78.4356H82.3417H86.2478M48.3417 67.2277H40.4615M64.985 54.113L55.4745 68.956H62.4036V80.4102L71.4386 64.8216H64.985V54.113Z" stroke="white" stroke-width="3"/>
</svg>

<svg width="128" height="128" fill="none" xmlns="http://www.w3.org/2000/svg"><circle cx="64" cy="64" r="63" stroke="#fff" stroke-width="2"/><path d="M58.532 41.439h-7.337m17.255 0h6.385m0 0V35H89.78v6.439m-14.945 0H89.78m0 0H98v6.642h-4.484m-42.321-6.642V35H37.812v6.439m13.383 0H37.812m0 0H30v6.642h4.076m27.784-6.642h3.125m28.531 6.642h-59.44m59.44 0l-.747 36.26m0 0H34.076m58.693 0h3.804V92H30v-7.659h4.076m0 0v-36.26M82.51 63.466v3.762m0 3.761v-3.761m0 0h-4.075 7.812m-37.906 0h-7.88m24.523-13.115l-9.51 14.843h6.929V80.41l9.035-15.588h-6.454V54.113z" stroke="#fff" stroke-width="3"/></svg>
